X: 3980
T: Blacksmith's, The
R: reel
M: 4/4
K: Amajor
ec c2 ecAc|ec c2 BcdB|ec c2 ecAc|dBcA BcdB|
ec c2 ecAc|ec c2 BcdB|ec c2 ecAc|dBcA BcdB||
A2 cA EAcA|A2 ce dBGB|A2 cA EAcA|dBcA BcdB|
A2 cA EAcA|A2 ce dBGB|AcEA cEAc|dBcA BcdB||

